X: 24409
T: Lovely Nancy
R: jig
M: 6/8
K: Dmajor
AFAd2d|Bcd AFD|FDD ADD|CEE EFG|
AFAd2d|Bcd AFD|GAB AFD|CB,CD3:|
|:FDD ADD|BDD ADD|FDD ADD|CEE EFG|
FDD ADD|BDDA2G|FED EDE|FDD D3:|

